X:106
T:Wals 31/12
T:Voor Kirsten
C:Lieven Lepeer, 2002-12-31
R:Wals
Z:Bert Van Vreckem, 2004-03-24 <http://flanders.blackmill.net/>
M:3/4
L:1/4
K:Dm
"A7"A|"Dm"d2 d|"F"c f/e/ d/c/|"G"d/c/ d/e/ g/f/|"A7"e e/g/ f/e/|"Dm"d2 d|"F"c f/e/ d/c/|"G"d/c/ d/e/ g/f/|"A7"e3|
"C"e2 f/e/|"Dm"d2 A|"Gm"G2 F/G/|"A7"A3|"C"e2 f/e/|"Dm"d d/A/ G/F/|"A7"E2 F/E/|[1D2:|[2D3||
|:"F"F2 F|"C"G F G|"F"A/c/ B/A/ G/F/|"A7"E2 E|"Dm"D D/F/ E/D/|"C"E/D/ E/G/ F/E/|"F"F/E/ F/A/ G/F/|"A7"E E/G/ F/E/|
"F"F2 F|"C"G F G|"F"A/c/ B/A/ G/F/|"A7"E2 E|"Dm"D D/F/ E/D/|"C"E/D/ E/G/ F/E/|"Dm"D2 "A7"^C|"Dm"D3:|
|:"F"A2 B/A/|"C"G2 "A"G|"F"A/c/ B/A/ G/F/|"A7"G2 G|"Bb"F2 G/F/|"F"C c/B/ A/G/|"C7"E2 F|"C"G3|
"F"A2 B/A/|"C"G2 "A"G|"F"A/c/ B/A/ G/F/|"A7"G2 E|"Dm"D/>C/ D/F/ E/D/|"C"E/>D/ E/G/ F/E/|[1"F"F/>E/ F/A/ G/F/|"A7"E2 E:|[2"Dm"D2 "A7"^C|"Dm"D3|]
